X:1
T:Title
%%score { 1 | 2 }
L:1/8
M:4/4
K:C
V:1 treble nm="Grand Piano"
V:2 bass 
V:1
 z4 z2[Q:1/4=104] ED | C2 E2 [EG]2 [Gc]2 | c4 A2 BA | [EG]2 [FA]2 [EG]2 [CE]2 | [B,D]6 [B,E][B,D] | %5
 C2 E2 [EG]2 [Gc]2 | [Fc]4 [FA]2 [GB][Gc] | [^Fd]2 [Fe]2 [Fd]2 [Fc]2 | B6 AB | %9
 [Ec]2 [Ed]2 [Fc]2 [FA]2 | [EG]4 [CE]2 [EG][EG] | [FA]2 [GB]2 [Ac]2 [Ad]2 | [^Ge]6 [Ge][Ge] | %13
 [Ad]2 [CAc]2 [CGB]2 [CFA]2 | [CGc]2 [CG]4 [CG][CGA] | [GB]2 [Ac]2 [GB]2 A2 |[M:3/4] G6 | %17
[M:1/4] GG |[M:4/4] d2 d4 e>d | [Ec]2 [EG]4 GG | d2 d4 [Gc]>d |[M:3/4] e6 |[M:1/4] [Ge][Ge] | %23
[M:4/4] d2 c2 B2 A2 | [Gc]2 G4 G[GA] | [FB]2 [FA]2 B2 G2 |[M:3/4] [Ec]6 |] %27
V:2
 z4 z2 [C,G,C][C,F,C] | [C,E,]2 [C,G,C]2 [C,C]2 [E,_B,]2 | [F,A,F]4 [F,CF]2 [F,CF][F,CF] | %3
 [C,C]2 [C,C]2 [C,C]2 [C,G,]2 | [G,,G,]6 [G,,G,][G,,F,] | [C,E,]2 [C,G,C]2 [C,C]2 [E,_B,]2 | %6
 [F,A,]4 [F,C]2 [F,D][E,C] | [D,C]2 [D,C]2 [D,C]2 [D,D]2 | [G,DF]6 [G,B,F][G,F] | %9
 [C,G,]2 [C,G,]2 [C,A,]2 [C,C]2 | [C,C]4 [C,G,]2 [C,C][C,C] | [F,C]2 [F,C]2 [F,C]2 [F,A,]2 | %12
 [E,B,]6 [E,B,][E,B,] | [F,A,]2 F,2 F,2 F,2 | E,2 E,4 _E,E, | [D,D]2 [D,D]2 [D,D]2 [D,CD]2 | %16
[M:3/4] [G,B,D]6 |[M:1/4] [G,B,][G,B,] |[M:4/4][K:treble] [G,B,F]2 [G,B,F]4 [G,B,G]>[G,F] | %19
 [C,G,]2 [C,C]4 [E,C][E,C] | [G,B,G]2 [G,B,G]4 [E,C]>[G,B,G] |[M:3/4] [CG]6 | %22
[M:1/4][K:bass] [C,_B,][C,B,] |[M:4/4] [F,A,F]2 [F,A,F]2 [F,A,F]2 [F,CF]2 | %24
 [E,C]2 [E,C]4 [E,C][E,C] | [D,G,]2 [D,G,]2[K:treble] [G,F]2 [G,F]2 |[M:3/4][K:bass] [C,G,]6 |] %27

